icons/brotli.svg

<svg width="16" height="16" viewBox="0 0 16 16" fill="none" xmlns="http://www.w3.org/2000/svg">
<path fill-rule="evenodd" clip-rule="evenodd" d="M8 14C11.3137 14 14 11.3137 14 8C14 4.68629 11.3137 2 8 2C4.68629 2 2 4.68629 2 8C2 11.3137 4.68629 14 8 14ZM4.33494 9.34808C4.57409 9.48615 5.43952 8.43488 6.26795 7C7.09638 5.56512 7.57409 4.29 7.33494 4.15192C7.09579 4.01385 6.23035 5.06512 5.40193 6.5C4.5735 7.93488 4.09579 9.21 4.33494 9.34808ZM6 11.4641C6.4783 11.7402 7.76146 10.4132 8.86603 8.5C9.9706 6.58683 10.4783 4.81204 10 4.5359C9.52171 4.25975 8.23855 5.58683 7.13398 7.5C6.02941 9.41317 5.52171 11.188 6 11.4641ZM10.5981 9.5C9.76965 10.9349 8.90421 11.9861 8.66507 11.8481C8.42592 11.71 8.90363 10.4349 9.73205 9C10.5605 7.56512 11.4259 6.51385 11.6651 6.65192C11.9042 6.79 11.4265 8.06512 10.5981 9.5Z" fill="#EEAC30"/>
</svg>

<svg xmlns="http://www.w3.org/2000/svg" width="16" height="16" fill="none"><path fill="#EEAC30" fill-rule="evenodd" d="M8 14A6 6 0 1 0 8 2a6 6 0 0 0 0 12ZM4.335 9.348c.24.138 1.105-.913 1.933-2.348.828-1.435 1.306-2.71 1.067-2.848-.24-.138-1.105.913-1.933 2.348-.829 1.435-1.306 2.71-1.067 2.848ZM6 11.464c.478.276 1.761-1.05 2.866-2.964C9.971 6.587 10.478 4.812 10 4.536 9.522 4.26 8.239 5.586 7.134 7.5 6.029 9.413 5.522 11.188 6 11.464ZM10.598 9.5c-.828 1.435-1.694 2.486-1.933 2.348-.24-.138.239-1.413 1.067-2.848.829-1.435 1.694-2.486 1.933-2.348.24.138-.238 1.413-1.067 2.848Z" clip-rule="evenodd"/></svg>
